X: 7570
T:Petronella
R:Reel
O:Scotland
O:USA
O:England
M:4/4
K:D
AG|\
F2AF E2AF|D2D2 D2FA|d2cd e2d2|cdec ABAG|\
F2AF E2AF|D2D2 D2FA|
d2cd e2c2|d6::\
dA|\
F2fd A2af|g2gf efed|
cdec Aceg|f2fd AdAF|\
D2fd A2af|g2gf efed|cdec Agec|d2d2 d2:|
